<?xml version="1.0" encoding="UTF-8"?>
<map version="1.10" tiledversion="1.10.1" orientation="orthogonal" renderorder="right-down" compressionlevel="0" width="7" height="4" tilewidth="16" tileheight="16" infinite="0" nextlayerid="11" nextobjectid="2">
 <properties>
  <property name="Outdoors" type="bool" value="true"/>
  <property name="Warp" value="50 11 Mountain 0 13 50 12 Mountain 0 13 50 13 Mountain 0 13 50 14 Mountain 0 13 50 15 Mountain 0 13 50 16 Mountain 0 13 50 16 Mountain 0 13 13 40 Farm 40 0 14 40 Farm 40 0 15 40 Farm 40 0 50 28 BusStop 0 8 50 29 BusStop 0 8 50 30 BusStop 0 8 50 31 BusStop 0 8 50 32 BusStop 0 8 22 29 Tunnel 39 9 22 30 Tunnel 39 9 22 31 Tunnel 39 9 22 32 Tunnel 39 9"/>
 </properties>
 <tileset firstgid="1" name="ichortower.NCK_Tilesheet" tilewidth="16" tileheight="16" tilecount="100" columns="10">
  <image source="tilesheet.png" width="160" height="160"/>
 </tileset>
 <layer id="1" name="Back" width="7" height="4">
  <data encoding="csv">
0,0,0,0,0,0,0,
0,0,0,0,8,0,0,
0,0,0,0,18,0,0,
0,0,0,0,0,0,0
</data>
 </layer>
 <layer id="2" name="Buildings" width="7" height="4">
  <data encoding="csv">
0,0,0,0,0,0,0,
0,0,13,14,15,16,17,
0,0,23,24,0,0,0,
31,32,33,34,35,36,37
</data>
 </layer>
 <layer id="3" name="Paths" width="7" height="4">
  <data encoding="csv">
0,0,0,0,0,0,0,
0,0,0,0,0,0,0,
0,0,0,0,0,0,0,
0,0,0,0,0,0,0
</data>
 </layer>
 <layer id="4" name="Front" width="7" height="4">
  <data encoding="csv">
0,0,0,0,0,0,0,
0,0,13,14,15,16,17,
21,22,23,24,25,26,27,
0,0,0,0,0,0,0
</data>
 </layer>
 <layer id="5" name="AlwaysFront" width="7" height="4">
  <data encoding="csv">
0,0,3,4,5,6,7,
11,12,0,0,0,0,0,
0,0,0,0,0,0,0,
0,0,0,0,0,0,0
</data>
 </layer>
 <objectgroup id="6" name="Back"/>
 <objectgroup id="7" name="Buildings"/>
 <objectgroup id="8" name="Paths"/>
 <objectgroup id="9" name="Front"/>
 <objectgroup id="10" name="AlwaysFront"/>
</map>
