<?xml version="1.0" encoding="UTF-8"?>
<map version="1.10" tiledversion="1.10.1" orientation="orthogonal" renderorder="right-down" compressionlevel="0" width="1" height="1" tilewidth="16" tileheight="16" infinite="0" nextlayerid="11" nextobjectid="15">
 <layer id="1" name="Back" width="1" height="1">
  <data encoding="csv">
0
</data>
 </layer>
 <layer id="2" name="Buildings" width="1" height="1">
  <data encoding="csv">
0
</data>
 </layer>
 <layer id="3" name="Front" width="1" height="1">
  <data encoding="csv">
0
</data>
 </layer>
 <layer id="4" name="Paths" width="1" height="1">
  <data encoding="csv">
0
</data>
 </layer>
 <layer id="5" name="AlwaysFront" width="1" height="1">
  <data encoding="csv">
0
</data>
 </layer>
 <objectgroup id="6" name="Back"/>
 <objectgroup id="7" name="Buildings"/>
 <objectgroup id="8" name="Front"/>
 <objectgroup id="9" name="Paths"/>
 <objectgroup id="10" name="AlwaysFront"/>
</map>
